icons/drop-outline.svg

<svg width="24" height="24" viewBox="0 0 24 24" fill="none" xmlns="http://www.w3.org/2000/svg">
<path fill-rule="evenodd" clip-rule="evenodd" d="M11.4189 3.29738C11.6302 3.00396 12.0528 2.90616 12.3698 3.10177C12.4491 3.15067 12.5283 3.22402 12.5811 3.29738C12.9509 3.81085 13.3472 4.37323 13.7962 4.98451C15.883 7.82084 19 12.0753 19 14.5204C19 16.3054 18.2075 17.9192 16.9396 19.0928C15.6717 20.2665 13.9283 21 12 21C10.0717 21 8.3283 20.2665 7.06038 19.1173C5.79245 17.9436 5 16.3298 5 14.5449C5 12.0998 8.11698 7.82084 10.2038 4.98451C10.6792 4.34878 11.0755 3.81085 11.4189 3.29738ZM12.0019 5.91897C11.9423 5.99907 11.88 6.08252 11.8147 6.16975C8.60771 10.5287 7 13.2027 7 14.5449C7 15.7051 7.50772 16.806 8.40351 17.6354C9.3557 18.4984 10.637 19 12 19C13.366 19 14.6392 18.4969 15.581 17.6251C16.4923 16.7816 17 15.6806 17 14.5204C17 13.1832 15.4261 10.5746 12.1853 6.16975C12.1235 6.08573 12.0632 6.00323 12.0019 5.91897ZM14.9997 13.0003C15.9987 13.0003 15.9997 13.9997 15.9997 13.9997C15.9997 16.2088 14.2088 17.9997 11.9997 17.9997C11.9997 17.9997 10.9997 17.9997 10.9997 17.0028C10.9997 16.006 11.9997 16.001 11.9997 16.001C13.1243 16.001 14.0006 15.081 14.0006 13.9997C14.0006 13.9997 14.0006 13.0003 14.9997 13.0003Z" fill="#3A3A47"/>
</svg>

<svg xmlns="http://www.w3.org/2000/svg" width="24" height="24" viewBox="0 0 24 24">
    <path fill="#3A3A47" fill-rule="evenodd" d="M11.419 3.297a.722.722 0 0 1 .95-.195c.08.049.16.122.212.195.37.514.766 1.076 1.215 1.688C15.883 7.82 19 12.075 19 14.52c0 1.785-.792 3.4-2.06 4.573A7.257 7.257 0 0 1 12 21a7.355 7.355 0 0 1-4.94-1.883C5.792 17.944 5 16.33 5 14.545c0-2.445 3.117-6.724 5.204-9.56.475-.636.871-1.174 1.215-1.688zm.583 2.622l-.187.25C8.608 10.53 7 13.204 7 14.546c0 1.16.508 2.261 1.404 3.09A5.355 5.355 0 0 0 12 19c1.366 0 2.64-.503 3.581-1.375.911-.843 1.419-1.944 1.419-3.105 0-1.337-1.574-3.945-4.815-8.35a70.367 70.367 0 0 1-.183-.251zM15 13c.999 0 1 1 1 1a4 4 0 0 1-4 4s-1 0-1-.997S12 16 12 16c1.124 0 2-.92 2-2.001 0 0 0-1 1-1z"/>
</svg>
